app/dist/common/images/nova-lifestyle.svg

<svg fill="none" height="18" viewBox="0 0 18 18" width="18" xmlns="http://www.w3.org/2000/svg"><path d="m0 0h18v18h-18z" fill="#f0f3fa"/><path d="m2 10.732c0 .2274.11106.2731.16659.2676.63857-.6244 2.24889-1.87306 3.58158-1.87306 3.28542 0 2.38772 1.55526 5.64543 1.55526 3.2576 0 4.7199-3.12726 4.5996-3.5119-.0963-.30771-.324-.12821-.4258 0-.3702.57975-1.5288 1.73924-3.2021 1.73924-2.0916 0-3.70189-1.6389-5.53433-1.6389s-3.79444 1.6389-4.22016 2.12388-.61081 1.05358-.61081 1.33788z" fill="#e32728"/></svg>

<!-- by TradingView --><svg width="18" height="18" viewBox="0 0 18 18" fill="none" xmlns="http://www.w3.org/2000/svg">
<rect width="18" height="18" fill="#F0F3FA"/>
<path d="M2 10.732C2 10.9594 2.11106 11.0051 2.16659 10.9996C2.80516 10.3752 4.41548 9.12654 5.74817 9.12654C9.03359 9.12654 8.13589 10.6818 11.3936 10.6818C14.6512 10.6818 16.1135 7.55454 15.9932 7.1699C15.8969 6.86219 15.6692 7.04169 15.5674 7.1699C15.1972 7.74965 14.0386 8.90914 12.3653 8.90914C10.2737 8.90914 8.66341 7.27024 6.83097 7.27024C4.99853 7.27024 3.03653 8.90914 2.61081 9.39412C2.18509 9.8791 2 10.4477 2 10.732Z" fill="#E32728"/>
</svg>
